icons/note-16.svg

<svg width="16" height="16" viewBox="0 0 16 16" xmlns="http://www.w3.org/2000/svg">
  <path fill-rule="evenodd" clip-rule="evenodd" d="M0 3.75C0 2.7835 0.783502 2 1.75 2H14.25C15.2165 2 16 2.7835 16 3.75V12.25C16 13.2165 15.2165 14 14.25 14H1.75C0.783501 14 0 13.2165 0 12.25V3.75ZM1.75 3.5C1.61193 3.5 1.5 3.61193 1.5 3.75V12.25C1.5 12.3881 1.61193 12.5 1.75 12.5H14.25C14.3881 12.5 14.5 12.3881 14.5 12.25V3.75C14.5 3.61193 14.3881 3.5 14.25 3.5H1.75ZM3.5 6.25C3.5 5.83579 3.83579 5.5 4.25 5.5H11.25C11.6642 5.5 12 5.83579 12 6.25C12 6.66421 11.6642 7 11.25 7H4.25C3.83579 7 3.5 6.66421 3.5 6.25ZM4.25 8.5C3.83579 8.5 3.5 8.83579 3.5 9.25C3.5 9.66421 3.83579 10 4.25 10H8.25C8.66421 10 9 9.66421 9 9.25C9 8.83579 8.66421 8.5 8.25 8.5H4.25Z"/>
</svg>

<svg xmlns="http://www.w3.org/2000/svg" width="16" height="16" viewBox="0 0 16 16"><path fill-rule="evenodd" d="M0 3.75C0 2.784.784 2 1.75 2h12.5c.966 0 1.75.784 1.75 1.75v8.5A1.75 1.75 0 0114.25 14H1.75A1.75 1.75 0 010 12.25v-8.5zm1.75-.25a.25.25 0 00-.25.25v8.5c0 .138.112.25.25.25h12.5a.25.25 0 00.25-.25v-8.5a.25.25 0 00-.25-.25H1.75zM3.5 6.25a.75.75 0 01.75-.75h7a.75.75 0 010 1.5h-7a.75.75 0 01-.75-.75zm.75 2.25a.75.75 0 000 1.5h4a.75.75 0 000-1.5h-4z"/></svg>
